X: 22282
T: La Patte De Mouton
R: reel
M: 4/4
K: Gmajor
|:GA|BGBG DGBG|AGFG ABcA|BGBG DGBG|AGFA G2:|
|:D/E/F|GABc d2 de|=f2 gfec de|=f2 gfec dc|BGAF D2:|

